X:1404
L:1/8
M:4/4
K:C
 G2 (ED) C2 G2 | A2 c2 e e2 (e/d/) | c3 d c2 E2 | G6 G2 | c c c2 G2 E E | G2 E D C2 (CD) | 
 E2 (EF) G2 (ED) | C6 E2 | G2 (ED) C2 G2 | A2 c2 e2 e d | c3 d c2 E2 | G6 G G | c c c2 G2 E2 | 
 G2 E D C2 (CD) | E2 (EF) G2 (FD) | C6 |]

